X:1
T:Need, 76.76 D
T:Need, 76.76 D
T:Anonymous, before 1917
T:Public Domain Courtesy of the Cyber Hymnal™
C:Anonymous, before 1917
Z:Public Domain
Z:Courtesy of the Cyber Hymnal™
%%score ( 1 2 ) ( 3 4 )
L:1/8
Q:1/4=115
M:4/4
K:F
V:1 treble 
V:2 treble 
V:3 bass 
V:4 bass 
V:1
 [FA]2 | [FB]2 [FA]2 [EA]2 [EG]2 | [DG]3 [DF] [DF]2 [CF]2 | [DG]2 [DG]2 [EB]2 [EB]2 | [FA]6 [FA]2 | %5
 [FB]2 [FA]2 [EA]2 [EG]2 | [DG]3 [DF] [DF]2 [CF]2 | [DG]2 [DG]2 [CE]2 [CE]2 | [CF]6 [CF]2 | %9
 [CG]2 [FA]2 [FB]2 [Fd]2 | [GB]4 [FA]2 [Gc]2 | [Fc]2 [F=B]2 [EA]2 [E^G]2 | [EA]6 [FA]2 | %13
 [FB]2 [FA]2 [EA]2 [EG]2 | [DG]4 [DF]2 F2 | [DG]2 [DG]2 [CE]2 [CE]2 | [CF]6 |] %17
V:2
 x2 | x8 | x8 | x8 | x8 | x8 | x8 | x8 | x8 | x8 | x8 | x8 | x8 | x8 | x6 F2 | x8 | x6 |] %17
V:3
 [F,C]2 | [F,D]2 [F,C]2 [C,C]2 [C,B,]2 | [D,A,]3 [D,A,] [D,A,]2 [A,,C]2 | %3
 [B,,B,]2 [B,,B,]2 [C,G,]2 [C,C]2 | [F,C]6 [F,C]2 | [F,D]2 [F,C]2 [C,C]2 [C,B,]2 | %6
 [D,A,]3 [D,A,] [D,A,]2 [A,,C]2 | [B,,B,]2 [B,,B,]2 [C,G,]2 [C,B,]2 | [F,A,]6 [F,A,]2 | %9
 [E,C]2 [_E,C]2 [D,B,]2 [D,B,]2 | (G,2 C2) [F,C]2 [E,C]2 | [D,D]2 [D,D]2 [E,C]2 [E,=B,]2 | %12
 [A,,C]6 [F,C]2 | [F,D]2 [F,C]2 [C,C]2 [^C,B,]2 | [D,A,]4 [D,A,]2 [A,,C]2 | %15
 [B,,B,]2 [B,,B,]2 [C,G,]2 [C,B,]2 | [F,A,]6 |] %17
V:4
 x2 | x8 | x8 | x8 | x8 | x8 | x8 | x8 | x8 | x8 | E,4 x4 | x8 | x8 | x8 | x8 | x8 | x6 |] %17

